X: 465
T:Gan ainm Houseband jig 2
R:double jig
Z:lesl
M:6/8
L:1/8
N:Posted to the woodenflute mailing list December 2001
Z:Lesl Harker
K:Ador
d|:A~A2 A2g|ede geB|G~G2 BAG|dBG AGE|
A~A2 A2g|edB def|g2g (3efg e|1 dBG A2E:|2 dBG A2e||
a3 age|a3 age|g3 gdB|GAB deg|
a3 age|edB def|g2g (3efg e|dBG A2e:|

